X: 39
T: Gan zhan ge
%%abc-version 2.0
%%abcx-abcm2ps-target-version 5.9.1 (29 Sep 2008)
%%abc-creator hum2abc beta
%%abcx-conversion-date 2013/10/02 07:44:27
%%abc-edited-by Helmut Schaffrath
%%humdrum-veritas 4018577652
%%humdrum-veritas-data 2783559744
%%continueall 1
%%barnumbers 0
L: 1/8
M: 6/8
K: F
C< C A,/ C D z [I:setbarnb 1]| 
D/ F< D C/ D D z | 
D D> C D D/ F/ z | 
D/ F< D F/ C C z | 
G F> D F G z | 
G F> D F D z | 
G F> D F G z | 
G F> D G F z | 
A,/ G,< A, G,/ A,/ C/ D z | 
D/ C< D F/ C A, z | 
A,/ G,< A, G,/ A,/ C/ D z | 
D/ C< D F/ D C z | 
G F> D G A z | 
G/ A< G F/ G/ F/ D z | 
G F> D G A z | 
G/ A< G F/ G F z |]  



